X: 633
T: Ehl-i Zevki Coşturur
C: Ahmet Avni Konuk
O: Turkey
F: http://compmusic.upf.edu/node/140
N: beyati-araban--kupe--duyek--ehl-i--ahmet_avni_konuk
N: makam= beyati-araban
N: form= kupe
N: usul= duyek = 8/4
M: 8/4
L: 1/16
K: C _1/4B _7/8e ^f 
Q: 1/4=57
%%MIDI tuningsystem comma53
z4 g8 a4 a8 a2_b2 a2b2  | a2g2 a2c'2 _b4 a2b2 a2g4b2 a2g2 f2e2  | 
w:  Ehl_ i  zev ki   |  *  *  coş *  *  tu *  rur  *  *  fasl_  | 
d4 d8 f4 f2e2 e2d2 e3d ^c2d2  | .^c4 d2a2 g4 f2g2 f2e2 {f}e2d2 d6z2  | 
w:  *  ı  Be yâ *  *  *  tî  |  *  A *  *  ra *  bân    | 
z4 g8 g4 f2g2 a2{_2/4b}ag aggf g4  | \
w:  Hâ tı ra  *  *  *  *  *  ol   | 
z4 d8 =e2=f2 e2d2 c2_2/4B2 c3B A4  | 
w:  dem  ge *  lir  *  *  *  sür  | 
z4 d2c2 _2/4B4 c4 d2e2 d2e2 g3f e2d2  | \
w:  at *  *  le  aşk_ *  *  *  ı   | 
c4 _2/4B2c2 d4 c2B2 B2A2 {c}B2A2 A6z2  | 
w:  *  Mih *  *  ri *  bân    | 
|


